icons/modern/heart-exclamation.svg

<svg width="32" height="32" viewBox="0 0 32 32" fill="none" xmlns="http://www.w3.org/2000/svg">
<path d="M15.2571 21.9469C15.788 22.2525 16.4357 22.2351 16.965 21.9267C19.912 20.2092 24.8531 16.4082 26.8145 11.4965C29.745 4.98714 22.8643 -0.20909 18.1087 3.52822C17.6457 3.89211 17.0714 4.30508 16.6479 4.7022C16.4046 4.93037 15.9809 4.95369 15.7312 4.73257C15.1665 4.23267 14.3463 3.6221 13.8095 3.25892C9.75527 0.515994 2.37856 4.13163 5.52521 11.8482C6.65972 15.2573 11.9987 20.0714 15.2571 21.9469Z" fill="url(#paint0_radial_7000_5051)"/>
<path d="M15.2571 21.9469C15.788 22.2525 16.4357 22.2351 16.965 21.9267C19.912 20.2092 24.8531 16.4082 26.8145 11.4965C29.745 4.98714 22.8643 -0.20909 18.1087 3.52822C17.6457 3.89211 17.0714 4.30508 16.6479 4.7022C16.4046 4.93037 15.9809 4.95369 15.7312 4.73257C15.1665 4.23267 14.3463 3.6221 13.8095 3.25892C9.75527 0.515994 2.37856 4.13163 5.52521 11.8482C6.65972 15.2573 11.9987 20.0714 15.2571 21.9469Z" fill="url(#paint1_radial_7000_5051)"/>
<path d="M15.2571 21.9469C15.788 22.2525 16.4357 22.2351 16.965 21.9267C19.912 20.2092 24.8531 16.4082 26.8145 11.4965C29.745 4.98714 22.8643 -0.20909 18.1087 3.52822C17.6457 3.89211 17.0714 4.30508 16.6479 4.7022C16.4046 4.93037 15.9809 4.95369 15.7312 4.73257C15.1665 4.23267 14.3463 3.6221 13.8095 3.25892C9.75527 0.515994 2.37856 4.13163 5.52521 11.8482C6.65972 15.2573 11.9987 20.0714 15.2571 21.9469Z" fill="url(#paint2_radial_7000_5051)"/>
<path d="M15.2571 21.9469C15.788 22.2525 16.4357 22.2351 16.965 21.9267C19.912 20.2092 24.8531 16.4082 26.8145 11.4965C29.745 4.98714 22.8643 -0.20909 18.1087 3.52822C17.6457 3.89211 17.0714 4.30508 16.6479 4.7022C16.4046 4.93037 15.9809 4.95369 15.7312 4.73257C15.1665 4.23267 14.3463 3.6221 13.8095 3.25892C9.75527 0.515994 2.37856 4.13163 5.52521 11.8482C6.65972 15.2573 11.9987 20.0714 15.2571 21.9469Z" fill="url(#paint3_radial_7000_5051)"/>
<path d="M15.2571 21.9469C15.788 22.2525 16.4357 22.2351 16.965 21.9267C19.912 20.2092 24.8531 16.4082 26.8145 11.4965C29.745 4.98714 22.8643 -0.20909 18.1087 3.52822C17.6457 3.89211 17.0714 4.30508 16.6479 4.7022C16.4046 4.93037 15.9809 4.95369 15.7312 4.73257C15.1665 4.23267 14.3463 3.6221 13.8095 3.25892C9.75527 0.515994 2.37856 4.13163 5.52521 11.8482C6.65972 15.2573 11.9987 20.0714 15.2571 21.9469Z" fill="url(#paint4_linear_7000_5051)"/>
<path d="M15.2571 21.9469C15.788 22.2525 16.4357 22.2351 16.965 21.9267C19.912 20.2092 24.8531 16.4082 26.8145 11.4965C29.745 4.98714 22.8643 -0.20909 18.1087 3.52822C17.6457 3.89211 17.0714 4.30508 16.6479 4.7022C16.4046 4.93037 15.9809 4.95369 15.7312 4.73257C15.1665 4.23267 14.3463 3.6221 13.8095 3.25892C9.75527 0.515994 2.37856 4.13163 5.52521 11.8482C6.65972 15.2573 11.9987 20.0714 15.2571 21.9469Z" fill="url(#paint5_linear_7000_5051)"/>
<g filter="url(#filter0_f_7000_5051)">
<path d="M16.623 6.9428V16.4987C16.623 17.4036 17.6492 17.7715 18.1228 17.0005C19.5984 14.5978 20.9045 11.0945 20.0292 8.27743C19.5439 6.71572 18.1229 6.11876 17.1756 6.2044C16.8187 6.23667 16.623 6.58442 16.623 6.9428Z" fill="#FA1C56"/>
</g>
<g filter="url(#filter1_f_7000_5051)">
<ellipse cx="23.2778" cy="7.34491" rx="3.39858" ry="2.33847" transform="rotate(-44.1901 23.2778 7.34491)" fill="url(#paint6_radial_7000_5051)"/>
</g>
<circle cx="16" cy="26.9766" r="3.21094" fill="url(#paint7_radial_7000_5051)"/>
<circle cx="16" cy="26.9766" r="3.21094" fill="url(#paint8_radial_7000_5051)"/>
<circle cx="16" cy="26.9766" r="3.21094" fill="url(#paint9_radial_7000_5051)"/>
<g filter="url(#filter2_f_7000_5051)">
<ellipse cx="17.0725" cy="26.4346" rx="1.36291" ry="1.26645" transform="rotate(-21.467 17.0725 26.4346)" fill="url(#paint10_radial_7000_5051)"/>
</g>
<g filter="url(#filter3_f_7000_5051)">
<ellipse cx="14.0625" cy="7.34499" rx="3.90466" ry="2.10656" transform="rotate(-128.955 14.0625 7.34499)" fill="url(#paint11_radial_7000_5051)" fill-opacity="0.6"/>
</g>
<defs>
<filter id="filter0_f_7000_5051" x="14.623" y="4.19641" width="7.68867" height="15.2228" filterUnits="userSpaceOnUse" color-interpolation-filters="sRGB">
<feFlood flood-opacity="0" result="BackgroundImageFix"/>
<feBlend mode="normal" in="SourceGraphic" in2="BackgroundImageFix" result="shape"/>
<feGaussianBlur stdDeviation="1" result="effect1_foregroundBlur_7000_5051"/>
</filter>
<filter id="filter1_f_7000_5051" x="18.8457" y="2.94238" width="8.86419" height="8.80505" filterUnits="userSpaceOnUse" color-interpolation-filters="sRGB">
<feFlood flood-opacity="0" result="BackgroundImageFix"/>
<feBlend mode="normal" in="SourceGraphic" in2="BackgroundImageFix" result="shape"/>
<feGaussianBlur stdDeviation="0.75" result="effect1_foregroundBlur_7000_5051"/>
</filter>
<filter id="filter2_f_7000_5051" x="14.7217" y="24.1544" width="4.70152" height="4.5603" filterUnits="userSpaceOnUse" color-interpolation-filters="sRGB">
<feFlood flood-opacity="0" result="BackgroundImageFix"/>
<feBlend mode="normal" in="SourceGraphic" in2="BackgroundImageFix" result="shape"/>
<feGaussianBlur stdDeviation="0.5" result="effect1_foregroundBlur_7000_5051"/>
</filter>
<filter id="filter3_f_7000_5051" x="9.61088" y="2.53149" width="8.90321" height="9.62695" filterUnits="userSpaceOnUse" color-interpolation-filters="sRGB">
<feFlood flood-opacity="0" result="BackgroundImageFix"/>
<feBlend mode="normal" in="SourceGraphic" in2="BackgroundImageFix" result="shape"/>
<feGaussianBlur stdDeviation="0.75" result="effect1_foregroundBlur_7000_5051"/>
</filter>
<radialGradient id="paint0_radial_7000_5051" cx="0" cy="0" r="1" gradientUnits="userSpaceOnUse" gradientTransform="translate(18.4496 21.8535) rotate(-90) scale(26.6008 45.2214)">
<stop stop-color="#F12E52"/>
<stop offset="0.596003" stop-color="#FF3B79"/>
<stop offset="1" stop-color="#FF4EC6"/>
</radialGradient>
<radialGradient id="paint1_radial_7000_5051" cx="0" cy="0" r="1" gradientUnits="userSpaceOnUse" gradientTransform="translate(21.7871 7.46981) rotate(142.986) scale(21.4136 40.1098)">
<stop offset="0.483055" stop-color="#B91D43" stop-opacity="0"/>
<stop offset="0.833898" stop-color="#B91D43"/>
</radialGradient>
<radialGradient id="paint2_radial_7000_5051" cx="0" cy="0" r="1" gradientUnits="userSpaceOnUse" gradientTransform="translate(19.3147 12.7162) rotate(-158.663) scale(18.5745 26.2576)">
<stop offset="0.40984" stop-color="#B91D43" stop-opacity="0"/>
<stop offset="0.833898" stop-color="#B91D43"/>
</radialGradient>
<radialGradient id="paint3_radial_7000_5051" cx="0" cy="0" r="1" gradientUnits="userSpaceOnUse" gradientTransform="translate(15.6922 9.47221) rotate(90) scale(16.1659 16.1659)">
<stop offset="0.671096" stop-color="#FF7AF2" stop-opacity="0"/>
<stop offset="0.933555" stop-color="#FFBCE6"/>
</radialGradient>
<linearGradient id="paint4_linear_7000_5051" x1="17.4765" y1="11.3645" x2="24.0185" y2="19.1501" gradientUnits="userSpaceOnUse">
<stop offset="0.694491" stop-color="#FF7AF2" stop-opacity="0"/>
<stop offset="0.933555" stop-color="#FFBCE6"/>
</linearGradient>
<linearGradient id="paint5_linear_7000_5051" x1="16.6655" y1="11.6889" x2="8.98798" y2="20.3396" gradientUnits="userSpaceOnUse">
<stop offset="0.694491" stop-color="#FF7AF2" stop-opacity="0"/>
<stop offset="0.933555" stop-color="#FFBCE6"/>
</linearGradient>
<radialGradient id="paint6_radial_7000_5051" cx="0" cy="0" r="1" gradientUnits="userSpaceOnUse" gradientTransform="translate(26.6982 8.06398) rotate(-176.775) scale(5.02594 3.39374)">
<stop stop-color="#FF93BA"/>
<stop offset="1" stop-color="#FF73A6" stop-opacity="0"/>
</radialGradient>
<radialGradient id="paint7_radial_7000_5051" cx="0" cy="0" r="1" gradientUnits="userSpaceOnUse" gradientTransform="translate(14.1958 29.8156) rotate(-45) scale(7.4596 12.0939)">
<stop stop-color="#F12E52"/>
<stop offset="0.596003" stop-color="#FF3B79"/>
<stop offset="1" stop-color="#FF4EC6"/>
</radialGradient>
<radialGradient id="paint8_radial_7000_5051" cx="0" cy="0" r="1" gradientUnits="userSpaceOnUse" gradientTransform="translate(16 26.4687) rotate(110.556) scale(4.73925 4.85721)">
<stop offset="0.671096" stop-color="#FF7AF2" stop-opacity="0"/>
<stop offset="0.933555" stop-color="#FFBCE6"/>
</radialGradient>
<radialGradient id="paint9_radial_7000_5051" cx="0" cy="0" r="1" gradientUnits="userSpaceOnUse" gradientTransform="translate(19.2109 28.9375) rotate(-152.663) scale(8.30216 8.87118)">
<stop offset="0.40984" stop-color="#B91D43" stop-opacity="0"/>
<stop offset="0.833898" stop-color="#B91D43"/>
</radialGradient>
<radialGradient id="paint10_radial_7000_5051" cx="0" cy="0" r="1" gradientUnits="userSpaceOnUse" gradientTransform="translate(18.7458 26.6517) rotate(174.347) scale(3.03081 5.73982)">
<stop stop-color="#FFA3BD"/>
<stop offset="1" stop-color="#FF80A3" stop-opacity="0"/>
</radialGradient>
<radialGradient id="paint11_radial_7000_5051" cx="0" cy="0" r="1" gradientUnits="userSpaceOnUse" gradientTransform="translate(16.3675 7.9139) rotate(-178.667) scale(8.31012 4.40121)">
<stop stop-color="#FF93BA"/>
<stop offset="1" stop-color="#FF73A6" stop-opacity="0"/>
</radialGradient>
</defs>
</svg>

<svg width="32" height="32" fill="none" xmlns="http://www.w3.org/2000/svg"><path d="M15.257 21.947c.531.306 1.179.288 1.708-.02 2.947-1.718 7.888-5.519 9.85-10.43 2.93-6.51-3.95-11.706-8.706-7.969-.463.364-1.038.777-1.461 1.174-.243.228-.667.252-.917.03-.565-.5-1.385-1.11-1.921-1.473-4.055-2.743-11.431.873-8.285 8.59C6.66 15.256 12 20.07 15.257 21.946Z" fill="url(#a)"/><path d="M15.257 21.947c.531.306 1.179.288 1.708-.02 2.947-1.718 7.888-5.519 9.85-10.43 2.93-6.51-3.95-11.706-8.706-7.969-.463.364-1.038.777-1.461 1.174-.243.228-.667.252-.917.03-.565-.5-1.385-1.11-1.921-1.473-4.055-2.743-11.431.873-8.285 8.59C6.66 15.256 12 20.07 15.257 21.946Z" fill="url(#b)"/><path d="M15.257 21.947c.531.306 1.179.288 1.708-.02 2.947-1.718 7.888-5.519 9.85-10.43 2.93-6.51-3.95-11.706-8.706-7.969-.463.364-1.038.777-1.461 1.174-.243.228-.667.252-.917.03-.565-.5-1.385-1.11-1.921-1.473-4.055-2.743-11.431.873-8.285 8.59C6.66 15.256 12 20.07 15.257 21.946Z" fill="url(#c)"/><path d="M15.257 21.947c.531.306 1.179.288 1.708-.02 2.947-1.718 7.888-5.519 9.85-10.43 2.93-6.51-3.95-11.706-8.706-7.969-.463.364-1.038.777-1.461 1.174-.243.228-.667.252-.917.03-.565-.5-1.385-1.11-1.921-1.473-4.055-2.743-11.431.873-8.285 8.59C6.66 15.256 12 20.07 15.257 21.946Z" fill="url(#d)"/><path d="M15.257 21.947c.531.306 1.179.288 1.708-.02 2.947-1.718 7.888-5.519 9.85-10.43 2.93-6.51-3.95-11.706-8.706-7.969-.463.364-1.038.777-1.461 1.174-.243.228-.667.252-.917.03-.565-.5-1.385-1.11-1.921-1.473-4.055-2.743-11.431.873-8.285 8.59C6.66 15.256 12 20.07 15.257 21.946Z" fill="url(#e)"/><path d="M15.257 21.947c.531.306 1.179.288 1.708-.02 2.947-1.718 7.888-5.519 9.85-10.43 2.93-6.51-3.95-11.706-8.706-7.969-.463.364-1.038.777-1.461 1.174-.243.228-.667.252-.917.03-.565-.5-1.385-1.11-1.921-1.473-4.055-2.743-11.431.873-8.285 8.59C6.66 15.256 12 20.07 15.257 21.946Z" fill="url(#f)"/><g filter="url(#g)"><path d="M16.623 6.943v9.556c0 .905 1.026 1.273 1.5.502 1.475-2.403 2.781-5.907 1.906-8.724-.485-1.561-1.906-2.158-2.853-2.073-.357.033-.553.38-.553.739Z" fill="#FA1C56"/></g><g filter="url(#h)"><ellipse cx="23.278" cy="7.345" rx="3.399" ry="2.338" transform="rotate(-44.19 23.278 7.345)" fill="url(#i)"/></g><circle cx="16" cy="26.977" r="3.211" fill="url(#j)"/><circle cx="16" cy="26.977" r="3.211" fill="url(#k)"/><circle cx="16" cy="26.977" r="3.211" fill="url(#l)"/><g filter="url(#m)"><ellipse cx="17.073" cy="26.435" rx="1.363" ry="1.266" transform="rotate(-21.467 17.073 26.435)" fill="url(#n)"/></g><g filter="url(#o)"><ellipse cx="14.063" cy="7.345" rx="3.905" ry="2.107" transform="rotate(-128.955 14.063 7.345)" fill="url(#p)" fill-opacity=".6"/></g><defs><radialGradient id="a" cx="0" cy="0" r="1" gradientUnits="userSpaceOnUse" gradientTransform="matrix(0 -26.6008 45.2214 0 18.45 21.854)"><stop stop-color="#F12E52"/><stop offset=".596" stop-color="#FF3B79"/><stop offset="1" stop-color="#FF4EC6"/></radialGradient><radialGradient id="b" cx="0" cy="0" r="1" gradientUnits="userSpaceOnUse" gradientTransform="matrix(-17.09851 12.8912 -24.1465 -32.02721 21.787 7.47)"><stop offset=".483" stop-color="#B91D43" stop-opacity="0"/><stop offset=".834" stop-color="#B91D43"/></radialGradient><radialGradient id="c" cx="0" cy="0" r="1" gradientUnits="userSpaceOnUse" gradientTransform="rotate(-158.663 10.855 4.539) scale(18.5745 26.2576)"><stop offset=".41" stop-color="#B91D43" stop-opacity="0"/><stop offset=".834" stop-color="#B91D43"/></radialGradient><radialGradient id="d" cx="0" cy="0" r="1" gradientUnits="userSpaceOnUse" gradientTransform="rotate(90 3.11 12.582) scale(16.1659)"><stop offset=".671" stop-color="#FF7AF2" stop-opacity="0"/><stop offset=".934" stop-color="#FFBCE6"/></radialGradient><radialGradient id="i" cx="0" cy="0" r="1" gradientUnits="userSpaceOnUse" gradientTransform="matrix(-5.01798 -.28275 .19092 -3.38837 26.698 8.064)"><stop stop-color="#FF93BA"/><stop offset="1" stop-color="#FF73A6" stop-opacity="0"/></radialGradient><radialGradient id="j" cx="0" cy="0" r="1" gradientUnits="userSpaceOnUse" gradientTransform="rotate(-45 43.089 -2.228) scale(7.4596 12.0939)"><stop stop-color="#F12E52"/><stop offset=".596" stop-color="#FF3B79"/><stop offset="1" stop-color="#FF4EC6"/></radialGradient><radialGradient id="k" cx="0" cy="0" r="1" gradientUnits="userSpaceOnUse" gradientTransform="matrix(-1.66406 4.4375 -4.54795 -1.70548 16 26.469)"><stop offset=".671" stop-color="#FF7AF2" stop-opacity="0"/><stop offset=".934" stop-color="#FFBCE6"/></radialGradient><radialGradient id="l" cx="0" cy="0" r="1" gradientUnits="userSpaceOnUse" gradientTransform="rotate(-152.663 13.124 12.133) scale(8.30216 8.87118)"><stop offset=".41" stop-color="#B91D43" stop-opacity="0"/><stop offset=".834" stop-color="#B91D43"/></radialGradient><radialGradient id="n" cx="0" cy="0" r="1" gradientUnits="userSpaceOnUse" gradientTransform="rotate(174.347 8.715 13.789) scale(3.03081 5.73982)"><stop stop-color="#FFA3BD"/><stop offset="1" stop-color="#FF80A3" stop-opacity="0"/></radialGradient><radialGradient id="p" cx="0" cy="0" r="1" gradientUnits="userSpaceOnUse" gradientTransform="matrix(-8.30787 -.19332 .10239 -4.40002 16.367 7.914)"><stop stop-color="#FF93BA"/><stop offset="1" stop-color="#FF73A6" stop-opacity="0"/></radialGradient><filter id="g" x="14.623" y="4.196" width="7.689" height="15.223" filterUnits="userSpaceOnUse" color-interpolation-filters="sRGB"><feFlood flood-opacity="0" result="BackgroundImageFix"/><feBlend in="SourceGraphic" in2="BackgroundImageFix" result="shape"/><feGaussianBlur stdDeviation="1" result="effect1_foregroundBlur_7000_5051"/></filter><filter id="h" x="18.846" y="2.942" width="8.864" height="8.805" filterUnits="userSpaceOnUse" color-interpolation-filters="sRGB"><feFlood flood-opacity="0" result="BackgroundImageFix"/><feBlend in="SourceGraphic" in2="BackgroundImageFix" result="shape"/><feGaussianBlur stdDeviation=".75" result="effect1_foregroundBlur_7000_5051"/></filter><filter id="m" x="14.722" y="24.154" width="4.702" height="4.56" filterUnits="userSpaceOnUse" color-interpolation-filters="sRGB"><feFlood flood-opacity="0" result="BackgroundImageFix"/><feBlend in="SourceGraphic" in2="BackgroundImageFix" result="shape"/><feGaussianBlur stdDeviation=".5" result="effect1_foregroundBlur_7000_5051"/></filter><filter id="o" x="9.611" y="2.531" width="8.903" height="9.627" filterUnits="userSpaceOnUse" color-interpolation-filters="sRGB"><feFlood flood-opacity="0" result="BackgroundImageFix"/><feBlend in="SourceGraphic" in2="BackgroundImageFix" result="shape"/><feGaussianBlur stdDeviation=".75" result="effect1_foregroundBlur_7000_5051"/></filter><linearGradient id="e" x1="17.477" y1="11.364" x2="24.018" y2="19.15" gradientUnits="userSpaceOnUse"><stop offset=".694" stop-color="#FF7AF2" stop-opacity="0"/><stop offset=".934" stop-color="#FFBCE6"/></linearGradient><linearGradient id="f" x1="16.666" y1="11.689" x2="8.988" y2="20.34" gradientUnits="userSpaceOnUse"><stop offset=".694" stop-color="#FF7AF2" stop-opacity="0"/><stop offset=".934" stop-color="#FFBCE6"/></linearGradient></defs></svg>
